X: 139
T: Nianjie shiwu sui Fifteen years old
L: 1/8
M: 2/4
K: C
A c c G [I:setbarnb 1]| 
d2c2 | 
AG3- | 
G4 | 
A c c G | 
A c e g | 
gc3- | 
c4 | 
cA2g | 
G cA2 | 
G E D E | 
G2A2 | 
eg2c | 
A GE2 | 
DC3- | 
C4 |]

@@@ Tune index: 8807
